X: 327
T: Stay where you are
C: anon.
O: Ireland
B: Francis O'Neill: "The Dance Music of Ireland" (1907) no. 327
R: Double jig
Z: Transcribed by Frank Nordberg - http://www.musicaviva.com
F: http://www.musicaviva.com/abc/tunes/ireland/oneill-1001/oneill-1001-032
7.abc
m: Tn2 = (3n/o/n/ m/n/
m: T=c2 = (3c/d/c/ B/c/
M: 6/8
L: 1/8
K: D
ABc|dcd ABc|d2A AGE|dcd ABc|def gfe|dcd ABc|d2A AGE|GAG EDE|c3:|
|:ABc|d2e fed|ecA AcA|d2e fed|(f<a)f gfe|d2e fed|ecA AGF|GFG EDE|c3:|
|:ABc|(Td2A) (Tc2A)|(Td2A) ABc|(Td2A) (Tc2A)|def gfe|(Td2B) (T=c2A)|(TB
2G) (TA2F)|GAG EDE|c3:|
W:
W:
W: From Musica Viva - http://www.musicaviva.com
W: the Internet center for free sheet music downloads.


